app/assets/svgs/problems.svg

<svg fill="none" height="130" viewBox="0 0 148 130" width="148" xmlns="http://www.w3.org/2000/svg"><path d="m.927801 35.4565 9.513899-.1307c-.96164-2.144-1.93885-2.7826-.002-4.7365 3.3442-3.3736 20.4677-9.6205 26.23-13.0294 8.497-5.0265 17.4074-17.455196 28.0716-11.88476l-2.4037 4.20532c4.96 2.18724 10.9797 3.30394 13.2848-2.62637l-7.2528-4.262c2.3626-6.46655 9.4218-.13392 12.9673.37577 3.7146.53399 8.7663-2.32587 12.3545 1.75546l-2.3751 2.11994 1.1671 1.07772c13.2716-.3601 27.5536 9.03582 39.4066 10.00132 8.462.6893 12.094-4.0403 13.582 8.1174.71 5.8001 1.122 14.0329 1.386 19.981.639 14.3851-.412 28.9422-.24 43.338-9.395 4.9574-17.313 11.8523-26.429 17.0663-5.856 3.349-12.838 6.813-18.831 9.959-4.1347 2.171-22.6077 12.452-25.2047 12.831-9.9985 1.459-13.4118-4.454-21.9354-7.119-6.6406-2.076-6.2287-1.527-12.074-4.51-4.1397-2.112-24.3497-10.504-28.0468-11.162-3.3842-.602-7.6299 2.433-10.21903-1.484-.13313-23.3128-4.284637-46.486-2.950269-69.8835zm10.734799 6.2382-.6801 9.5871 10.2836 3.1101.7085-9.5831zm-.0042 20.1444 1.7851 11.6714 9.0611 3.16-1.7735-11.6816zm2.4125 22.2611c.1965 7.9998-2.8504 15.7415 8.4343 18.0108l-1.3793-16.7976zm28.9528-52.9934c-11.9034-5.3696-17.0371-1.9906-26.5406 4.7523 9.4584 7.0159 20.1974 3.4206 26.5406-4.7523zm-10.858 59.3489v15.3703l10.8544 4.765c-1.4512-3.377 3.0519-15.4882.4935-17.0745zm.012-22.2603.5411 12.7641 11.5024 4.1957-.1914-12.5464zm-.0055-21.1958.191 11.4865 11.2329 4.4084c2.8615-.4957 1.4727-9.2045 2.5364-11.72zm7.2582-4.7755c8.9996 6.4822 18.2445 1.9388 25.2935-4.2398-11.3156-7.0231-15.9059-1.3283-25.2935 4.2398zm21.6996-23.8394c-7.4325-2.4762-13.2667-3.1307-16.8921 4.2222 6.0021 1.5574 10.1066 1.1863 15.3316-1.8604 1.1325-.6604 2.1789.1343 1.5605-2.3618zm8.4453 102.8123v-18.021l-15.6747-5.301c-.7293 4.107-3.3153 15.41.6926 17.931.6978.439 14.4293 5.91 14.9821 5.391zm-14.4279-44.4787c-5.3648 13.4793 3.6899 14.2659 15.6237 17.9786 4.4046-14.0756-.1813-16.9712-15.6237-17.9786zm-.0478-23.3656-.6947 12.7664 17.5785 4.1985c.0595-4.5452.4545-9.2273-1.4729-13.5441zm37.401-5.3116-16.5118-8.302-14.8731 7.7854c11.1167 4.4001 20.6762 7.2737 31.3849.5166zm-30.1622-22.2313c-.3639 2.5321-.0462 1.6889 1.6667 2.2215 3.9724 1.2351 14.2002 3.4531 16.4227-.6601.5506-2.1551-.9728-1.4635-2.4239-2.0462-7.9182-3.18-7.8152-2.847-15.6655.4848zm16.9006 81.6072.0024 13.779c3.1021-1.849 14.3109-6.575 15.4379-9.213 2.1769-5.097-.7894-10.522 1.4442-15.1569-6.2752.5622-13.4491 4.7649-13.8657 10.6859zm-.0016-93.2643c-2.1292 2.6272 9.8784 5.3548 11.696 6.1413l8.8048-5.6358c-6.969-1.2909-13.9597-4.366-20.5008-.5055zm16.8866 58.2825c-16.9653 3.2699-13.5815 10.4573-15.7047 22.7762l15.7047-7.4058zm-14.4138-13.726-.0612 11.602c11.0184-1.7575 16.7838-6.4833 14.4686-16.9513zm2.351-26.5385c-.6162 2.4735.386 1.6947 1.549 2.3579 3.1887 1.8182 22.6458 9.7389 22.5578 3.4553-7.589-3.6135-15.6159-10.4162-24.1068-5.8132zm50.6788-4.2701c.067-1.6366.474-2.5562-1.234-3.6722-.892-.5825-20.101-5.7484-21.207-5.8472-4.475-.4002-8.04 2.5242-11.346 4.774-.604 2.1118 16.473 9.2684 19.152 9.5247 5.144.4922 9.618-4.6604 14.635-4.7793zm-28.962 63.0851v15.3703c7.137-2.005 13.826-6.282 18.101-11.6496l-6.028-.0164 1.195-9.5295zm12.056-29.1506-11.862 5.9987 1.024 14.1429c.877.6839 10.491-3.9112 11.283-5.5882zm-10.598-15.6886c-.587.8797-.516 9.2869-.255 10.9417.64 4.0506 8.67-1.1447 10.269-2.6668l.59-12.7216c-1.004-.9156-10.304 3.9965-10.604 4.4467zm20.383-9.6503c-.411.4183-.347 9.5272-.122 11.0473.217 1.4628-.658 1.8532 1.766 1.5383l6.493-3.8454.179-10.9618zm9.523 38.0593-8.236 4.9455-.187 12.0144 8.237-3.3485zm-8.182-17.8069c-.6.905-.511 9.242-.256 10.9355.166 1.1029-.296 2.277 1.793 1.5587 8.063-2.7727 4.996-9.7597 5.438-15.8879z" fill="#353848"/></svg>

<svg width="148" height="130" viewBox="0 0 148 130" fill="none" xmlns="http://www.w3.org/2000/svg">
<path d="M0.927801 35.4565L10.4417 35.3258C9.48006 33.1818 8.50285 32.5432 10.4397 30.5893C13.7839 27.2157 30.9074 20.9688 36.6697 17.5599C45.1667 12.5334 54.0771 0.104704 64.7413 5.67514L62.3376 9.88046C67.2976 12.0677 73.3173 13.1844 75.6224 7.25409L68.3696 2.99209C70.7322 -3.47446 77.7914 2.85817 81.3369 3.36786C85.0515 3.90185 90.1032 1.04199 93.6914 5.12332L91.3163 7.24326L92.4834 8.32098C105.755 7.96088 120.037 17.3568 131.89 18.3223C140.352 19.0116 143.984 14.282 145.472 26.4397C146.182 32.2398 146.594 40.4726 146.858 46.4207C147.497 60.8058 146.446 75.3629 146.618 89.7587C137.223 94.7161 129.305 101.611 120.189 106.825C114.333 110.174 107.351 113.638 101.358 116.784C97.2233 118.955 78.7503 129.236 76.1533 129.615C66.1548 131.074 62.7415 125.161 54.2179 122.496C47.5773 120.42 47.9892 120.969 42.1439 117.986C38.0042 115.874 17.7942 107.482 14.0971 106.824C10.7129 106.222 6.4672 109.257 3.87807 105.34C3.74494 82.0272 -0.406567 58.854 0.927801 35.4565ZM11.6626 41.6947L10.9825 51.2818L21.2661 54.3919L21.9746 44.8088L11.6626 41.6947ZM11.6584 61.8391L13.4435 73.5105L22.5046 76.6705L20.7311 64.9889L11.6584 61.8391ZM14.0709 84.1002C14.2674 92.1 11.2205 99.8417 22.5052 102.111L21.1259 85.3134L14.0709 84.1002ZM43.0237 31.1068C31.1203 25.7372 25.9866 29.1162 16.4831 35.8591C25.9415 42.875 36.6805 39.2797 43.0237 31.1068ZM32.1657 90.4557L32.1657 105.826L43.0201 110.591C41.5689 107.214 46.072 95.1028 43.5136 93.5165L32.1657 90.4557ZM32.1777 68.1954L32.7188 80.9595L44.2212 85.1552L44.0298 72.6088L32.1777 68.1954ZM32.1722 46.9996L32.3632 58.4861L43.5961 62.8945C46.4576 62.3988 45.0688 53.69 46.1325 51.1745L32.1722 46.9996ZM39.4304 42.2241C48.43 48.7063 57.6749 44.1629 64.7239 37.9843C53.4083 30.9612 48.818 36.656 39.4304 42.2241ZM61.13 18.3847C53.6975 15.9085 47.8633 15.254 44.2379 22.6069C50.24 24.1643 54.3445 23.7932 59.5695 20.7465C60.702 20.0861 61.7484 20.8808 61.13 18.3847ZM69.5753 121.197L69.5753 103.176L53.9006 97.875C53.1713 101.982 50.5853 113.285 54.5932 115.806C55.291 116.245 69.0225 121.716 69.5753 121.197ZM55.1474 76.7183C49.7826 90.1976 58.8373 90.9842 70.7711 94.6969C75.1757 80.6213 70.5898 77.7257 55.1474 76.7183ZM55.0996 53.3527L54.4049 66.1191L71.9834 70.3176C72.0429 65.7724 72.4379 61.0903 70.5105 56.7735L55.0996 53.3527ZM92.5006 48.0411L75.9888 39.7391L61.1157 47.5245C72.2324 51.9246 81.7919 54.7982 92.5006 48.0411ZM62.3384 25.8098C61.9745 28.3419 62.2922 27.4987 64.0051 28.0313C67.9775 29.2664 78.2053 31.4844 80.4278 27.3712C80.9784 25.2161 79.455 25.9077 78.0039 25.325C70.0857 22.145 70.1887 22.478 62.3384 25.8098ZM79.239 107.417L79.2414 121.196C82.3435 119.347 93.5523 114.621 94.6793 111.983C96.8562 106.886 93.8899 101.461 96.1235 96.8261C89.8483 97.3883 82.6744 101.591 82.2578 107.512L79.239 107.417ZM79.2374 14.1527C77.1082 16.7799 89.1158 19.5075 90.9334 20.294L99.7382 14.6582C92.7692 13.3673 85.7785 10.2922 79.2374 14.1527ZM96.124 72.4352C79.1587 75.7051 82.5425 82.8925 80.4193 95.2114L96.124 87.8056L96.124 72.4352ZM81.7102 58.7092L81.649 70.3112C92.6674 68.5537 98.4328 63.8279 96.1176 53.3599L81.7102 58.7092ZM84.0612 32.1707C83.445 34.6442 84.4472 33.8654 85.6102 34.5286C88.7989 36.3468 108.256 44.2675 108.168 37.9839C100.579 34.3704 92.5521 27.5677 84.0612 32.1707ZM134.74 27.9006C134.807 26.264 135.214 25.3444 133.506 24.2284C132.614 23.6459 113.405 18.48 112.299 18.3812C107.824 17.981 104.259 20.9054 100.953 23.1552C100.349 25.267 117.426 32.4236 120.105 32.6799C125.249 33.1721 129.723 28.0195 134.74 27.9006ZM105.778 90.9857L105.778 106.356C112.915 104.351 119.604 100.074 123.879 94.7064L117.851 94.69L119.046 85.1605L105.778 90.9857ZM117.834 61.8351L105.972 67.8338L106.996 81.9767C107.873 82.6606 117.487 78.0655 118.279 76.3885L117.834 61.8351ZM107.236 46.1465C106.649 47.0262 106.72 55.4334 106.981 57.0882C107.621 61.1388 115.651 55.9435 117.25 54.4214L117.84 41.6998C116.836 40.7842 107.536 45.6963 107.236 46.1465ZM127.619 36.4962C127.208 36.9145 127.272 46.0234 127.497 47.5435C127.714 49.0063 126.839 49.3967 129.263 49.0818L135.756 45.2364L135.935 34.2746L127.619 36.4962ZM137.142 74.5555L128.906 79.501L128.719 91.5154L136.956 88.1669L137.142 74.5555ZM128.96 56.7486C128.36 57.6536 128.449 65.9906 128.704 67.6841C128.87 68.787 128.408 69.9611 130.497 69.2428C138.56 66.4701 135.493 59.4831 135.935 53.3549L128.96 56.7486Z" fill="#353848"/>
</svg>
